X: 29
T: 26. DANCE TUNE
B: Sam Bayard, "Hill Country Tunes" 1944 #26
N: Copied from manuscript of Denune Provance, Peachen, Fayette County, PA, Sep 21 1943.
S: Learned from traditional players about Dunbar.
R: jig
M: 6/8
L: 1/8
Z: 2010 John Chambers <jc:trillian.mit.edu>
K: C
g2^f g2a | gec G3 | fdB GAB | cBA G3  |
g2^f g2a | gec G3 | fdB GAB | c3- c3 ::
c3  _B3  | Acf a3 | _b3 d3  | fef gfd |
c3  _B3  | Acf a3 | _b3 d2e | fag f3 :|

%%sep 2 1 500
%%sep 1 1 500

